sprites/basic-v8/_svg/gift-24.svg

<?xml version="1.0" encoding="UTF-8" standalone="no"?>
<!-- Created with Inkscape (http://www.inkscape.org/) -->

<svg
   xmlns:dc="http://purl.org/dc/elements/1.1/"
   xmlns:cc="http://creativecommons.org/ns#"
   xmlns:rdf="http://www.w3.org/1999/02/22-rdf-syntax-ns#"
   xmlns:svg="http://www.w3.org/2000/svg"
   xmlns="http://www.w3.org/2000/svg"
   xmlns:inkscape="http://www.inkscape.org/namespaces/inkscape"
   version="1.1"
   width="24"
   height="24"
   viewBox="-402.5 403.5 24 24"
   id="svg4460"
   xml:space="preserve"><metadata
     id="metadata35"><rdf:RDF><cc:Work
         rdf:about=""><dc:format>image/svg+xml</dc:format><dc:type
           rdf:resource="http://purl.org/dc/dcmitype/StillImage" /></cc:Work></rdf:RDF></metadata><defs
     id="defs33" /><g
     id="g3"
     style="opacity:0.3"><path
       d="m -387.5,407.5 c -1.516,0 -2.619,0.904 -3,2.236 -0.382,-1.332 -1.451,-2.236 -3,-2.236 -1,0 -2,0.7 -2,2 0,1.299 0.61,2 1.909,2 h 2.902 0.305 2.901 c 1.298,0 1.984,-0.686 1.984,-1.984 -10e-4,-1.3 -1.001,-2.016 -2.001,-2.016 z m 0,1 c 1,0 1,0.957 1,1 0,0.043 0.051,1 -1,1 h -2 c 0.107,-0.719 0.379,-2 2,-2 z m -4,2 h -2 c -1.051,0 -1,-0.957 -1,-1 0,-0.043 -0.051,-1 1,-1 1.619,0 1.893,1.281 2,2 z"
       inkscape:connector-curvature="0"
       id="path5"
       style="fill:#ffffff;stroke:#ffffff;stroke-width:2;stroke-linejoin:round" /><g
       id="g7"><path
         d="m -391.5,417.5 v -4 h -3.5 c -0.829,0 -1.5,0.672 -1.5,1.5 v 2.5 h 5 z"
         inkscape:connector-curvature="0"
         id="path9"
         style="fill:#ffffff;stroke:#ffffff;stroke-width:2;stroke-linejoin:round" /><path
         d="m -389.5,417.5 h 5 V 415 c 0,-0.828 -0.671,-1.5 -1.5,-1.5 h -3.5 v 4 z"
         inkscape:connector-curvature="0"
         id="path11"
         style="fill:#ffffff;stroke:#ffffff;stroke-width:2;stroke-linejoin:round" /><path
         d="m -389.5,419.5 v 4 h 3.5 c 0.829,0 1.5,-0.672 1.5,-1.5 v -2.5 h -5 z"
         inkscape:connector-curvature="0"
         id="path13"
         style="fill:#ffffff;stroke:#ffffff;stroke-width:2;stroke-linejoin:round" /><path
         d="m -391.5,419.5 h -5 v 2.5 c 0,0.828 0.671,1.5 1.5,1.5 h 3.5 v -4 z"
         inkscape:connector-curvature="0"
         id="path15"
         style="fill:#ffffff;stroke:#ffffff;stroke-width:2;stroke-linejoin:round" /></g></g><g
     id="g17"><path
       d="M 9,4 C 8,4 7,4.7 7,6 7,7.299 7.60725,8 8.90625,8 l 2.90625,0 0.3125,0 2.90625,0 C 16.32925,8 17,7.32925 17,6.03125 16.999,4.73125 16,4 15,4 13.484,4 12.381,4.918 12,6.25 11.618,4.918 10.549,4 9,4 z m 0,1 c 1.619,0 1.893,1.281 2,2 L 9,7 C 7.949,7 8,6.043 8,6 8,5.957 7.949,5 9,5 z m 6,0 c 1,0 1,0.957 1,1 0,0.043 0.051,1 -1,1 L 13,7 C 13.107,6.281 13.379,5 15,5 z M 7.5,10 C 6.671,10 6,10.672 6,11.5 l 0,2.5 5,0 0,-4 -3.5,0 z m 5.5,0 0,4 5,0 0,-2.5 C 18,10.672 17.329,10 16.5,10 L 13,10 z m -7,6 0,2.5 C 6,19.328 6.671,20 7.5,20 l 3.5,0 0,-4 -5,0 z m 7,0 0,4 3.5,0 c 0.829,0 1.5,-0.672 1.5,-1.5 l 0,-2.5 -5,0 z"
       inkscape:connector-curvature="0"
       transform="translate(-402.5,403.5)"
       id="path19"
       style="fill:#444444;fill-opacity:1" /></g><rect
     width="24"
     height="24"
     x="0"
     y="0"
     id="canvas"
     style="fill:none;stroke:none;visibility:hidden" /></svg>

<?xml version="1.0" encoding="utf-8"?>
<!-- Generator: Adobe Illustrator 17.0.0, SVG Export Plug-In . SVG Version: 6.00 Build 0)  -->
<!DOCTYPE svg PUBLIC "-//W3C//DTD SVG 1.1//EN" "http://www.w3.org/Graphics/SVG/1.1/DTD/svg11.dtd">
<svg version="1.1"
	 id="svg4460" xmlns:dc="http://purl.org/dc/elements/1.1/" xmlns:cc="http://creativecommons.org/ns#" xmlns:rdf="http://www.w3.org/1999/02/22-rdf-syntax-ns#" xmlns:svg="http://www.w3.org/2000/svg" xmlns:inkscape="http://www.inkscape.org/namespaces/inkscape"
	 xmlns="http://www.w3.org/2000/svg" xmlns:xlink="http://www.w3.org/1999/xlink" x="0px" y="0px" width="24px" height="24px"
	 viewBox="0 0 24 24" enable-background="new 0 0 24 24" xml:space="preserve">
<g id="g3" opacity="0.3">
	<path id="path5" inkscape:connector-curvature="0" fill="#FFFFFF" stroke="#FFFFFF" stroke-width="2" stroke-linejoin="round" d="
		M15,4c-1.516,0-2.619,0.904-3,2.236C11.618,4.904,10.549,4,9,4C8,4,7,4.7,7,6c0,1.299,0.61,2,1.909,2h2.902h0.305h2.901
		c1.298,0,1.984-0.686,1.984-1.984C17,4.716,16,4,15,4z M15,5c1,0,1,0.957,1,1s0.051,1-1,1h-2C13.107,6.281,13.379,5,15,5z M11,7H9
		C7.949,7,8,6.043,8,6S7.949,5,9,5C10.619,5,10.893,6.281,11,7z"/>
	<g id="g7">
		<path id="path9" inkscape:connector-curvature="0" fill="#FFFFFF" stroke="#FFFFFF" stroke-width="2" stroke-linejoin="round" d="
			M11,14v-4H7.5C6.671,10,6,10.672,6,11.5V14H11z"/>
		
			<path id="path11" inkscape:connector-curvature="0" fill="#FFFFFF" stroke="#FFFFFF" stroke-width="2" stroke-linejoin="round" d="
			M13,14h5v-2.5c0-0.828-0.671-1.5-1.5-1.5H13V14z"/>
		
			<path id="path13" inkscape:connector-curvature="0" fill="#FFFFFF" stroke="#FFFFFF" stroke-width="2" stroke-linejoin="round" d="
			M13,16v4h3.5c0.829,0,1.5-0.672,1.5-1.5V16H13z"/>
		
			<path id="path15" inkscape:connector-curvature="0" fill="#FFFFFF" stroke="#FFFFFF" stroke-width="2" stroke-linejoin="round" d="
			M11,16H6v2.5C6,19.328,6.671,20,7.5,20H11V16z"/>
	</g>
</g>
<g id="g17">
	<path id="path19" inkscape:connector-curvature="0" fill="#444444" d="M9,4C8,4,7,4.7,7,6c0,1.299,0.607,2,1.906,2h2.906h0.312
		h2.906C16.329,8,17,7.329,17,6.031C16.999,4.731,16,4,15,4c-1.516,0-2.619,0.918-3,2.25C11.618,4.918,10.549,4,9,4z M9,5
		c1.619,0,1.893,1.281,2,2H9C7.949,7,8,6.043,8,6S7.949,5,9,5z M15,5c1,0,1,0.957,1,1s0.051,1-1,1h-2C13.107,6.281,13.379,5,15,5z
		 M7.5,10C6.671,10,6,10.672,6,11.5V14h5v-4H7.5z M13,10v4h5v-2.5c0-0.828-0.671-1.5-1.5-1.5H13z M6,16v2.5
		C6,19.328,6.671,20,7.5,20H11v-4H6z M13,16v4h3.5c0.829,0,1.5-0.672,1.5-1.5V16H13z"/>
</g>
<rect id="canvas" display="none" fill="none" width="24" height="24"/>
</svg>
